Newaita-dark/apps/64/display.im6.svg

<svg height="64" viewBox="0 0 64 64" width="64" xmlns="http://www.w3.org/2000/svg" xmlns:xlink="http://www.w3.org/1999/xlink"><linearGradient id="a" gradientTransform="matrix(.166682 0 0 .125012 -10.584331 26.87757)" gradientUnits="userSpaceOnUse" x1="254" x2="254" y1="233.5" y2="254.666672"><stop offset="0" stop-opacity=".27451"/><stop offset="1" stop-opacity="0"/></linearGradient><linearGradient id="b"><stop offset="0" stop-opacity=".313726"/><stop offset=".222222" stop-opacity=".27451"/><stop offset="1" stop-opacity="0"/></linearGradient><radialGradient id="c" cx="450.908936" cy="189.579361" gradientTransform="matrix(.00000035 -.156265 -.281277 -.0000002 89.707825 127.190665)" gradientUnits="userSpaceOnUse" r="21.166656" xlink:href="#b"/><radialGradient id="d" cx="450.908936" cy="189.579361" gradientTransform="matrix(-.00000035 .156265 .281277 .0000002 -26.201744 -15.054958)" gradientUnits="userSpaceOnUse" r="21.166656" xlink:href="#b"/><radialGradient id="e" cx="450.908936" cy="189.579361" gradientTransform="matrix(-.00000035 -.156265 .281277 -.0000002 -26.201744 127.190665)" gradientUnits="userSpaceOnUse" r="21.166656" xlink:href="#b"/><radialGradient id="f" cx="450.908936" cy="189.579361" gradientTransform="matrix(.00000035 .156265 -.281277 .0000002 89.707821 -15.054959)" gradientUnits="userSpaceOnUse" r="21.166656" xlink:href="#b"/><linearGradient id="g" gradientUnits="userSpaceOnUse" x1="31.75304412463" x2="31.753048" y1="61.36004400013" y2="5.79220799994"><stop offset="0" stop-color="#5c6bc0"/><stop offset="1" stop-color="#7986cb"/></linearGradient><linearGradient id="h" gradientUnits="userSpaceOnUse" x1="289.274017" x2="185.185608" y1="238.876144" y2="-149.587021"><stop offset="0" stop-color="#ffa726"/><stop offset="1" stop-color="#ffb74d"/></linearGradient><path d="m26.460938 55.40625h10.585937v3.308594h-10.585937zm0 0" fill="url(#a)"/><path d="m37.046875 56.066406h5.289063v-2.644531h-5.289063zm0 0" fill="url(#c)"/><path d="m26.460938 56.066406h-5.292969v2.648438h5.292969zm0 0" fill="url(#d)"/><path d="m26.460938 56.066406h-5.292969v-2.644531h5.292969zm0 0" fill="url(#e)"/><path d="m37.046875 56.066406h5.289063v2.648438h-5.289063zm0 0" fill="url(#f)"/><path d="m35.960938 5.738281c-11.347657-.011719-15.046876 18.523438-24.890626 33.710938-2.8125 1.710937-4.457031 3.789062-4.457031 6.035156 0 5.863281 11.214844 10.582031 25.140625 10.582031 13.925782 0 25.136719-4.71875 25.136719-10.582031 0-2.386719-1.859375-4.585937-5.003906-6.355469-2.824219-3.011718-10.226563-11.761718-6.398438-17.113281 2.140625-2.992187 10.078125-.347656 10.078125-.347656 0-5.292969-10.160156-16.632813-18.3125-15.851563-.441406-.050781-.871094-.078125-1.292968-.078125zm0 0" fill="url(#g)"/><g stroke-width="3"><path d="m201.077339 32.428226c5.949822-.009135 9.09324 19.690389 13.91204 23.186891 4.8188 3.496501 24.526411.383265 26.364825 6.037029 1.846502 5.683946-15.941822 14.752769-17.756627 20.414931-1.853075 5.640067 7.185566 23.436478 2.363054 26.928418-4.822511 3.49194-18.914867-10.588834-24.864689-10.579699s-20.068865 14.079396-24.887665 10.582894 4.197382-21.278294 2.358967-26.932057c-1.838414-5.653764-19.576016-14.746485-17.761211-20.408647 1.853075-5.640067 21.535885-2.567943 26.358397-6.059883 4.822511-3.49194 7.955-23.190924 13.912909-23.169877zm0 0" fill="url(#h)" stroke="#212121" stroke-linecap="round" stroke-linejoin="round" transform="matrix(.120752 .0323555 -.0323555 .120752 1.905406 17.863423)"/><path d="m201.068832 32.412047c5.94925.007112 9.12108 19.698437 13.923084 23.192494s24.516203.407596 26.347578 6.047221c1.842812 5.682309-15.921455 14.765492-17.744999 20.423724-1.850605 5.642609 7.189894 23.418313 2.387729 26.923866-4.829226 3.48993-18.963428-10.587731-24.885618-10.579219-5.94925-.007111-20.065409 14.068784-24.910097 10.586164-4.802004-3.494057 4.24573-21.28999 2.387295-26.945238-1.831375-5.639625-19.59606-14.74148-17.745455-20.384089 1.823544-5.658232 21.545134-2.570585 26.347299-6.076138s7.970994-23.180273 13.893184-23.188785zm0 0" fill="url(#h)" stroke="#212121" stroke-linecap="round" stroke-linejoin="round" transform="matrix(.108264 -.062506 .062506 .108264 9.279854 32.051147)"/><path d="m201.096004 32.405681c5.929745.018789 9.090168 19.716881 13.88942 23.203394 4.827697 3.499446 24.528366.408846 26.358616 6.046584 1.845762 5.679117-15.9135 14.766926-17.760573 20.414583-1.847074 5.647657 7.199357 23.42243 2.378607 26.928517s-18.933622-10.599709-24.8763-10.590053c-5.942679.009656-20.063985 14.08115-24.891682 10.581703-4.799252-3.486512 4.220266-21.285054 2.390016-26.922792-1.845762-5.679117-19.589992-14.742591-17.771363-20.403182 1.847073-5.647657 21.552199-2.557665 26.372949-6.063752 4.807817-3.477642 7.939186-23.198279 13.91031-23.195002zm0 0" fill="url(#h)" stroke="#212121" stroke-linecap="round" stroke-linejoin="round" transform="matrix(.113801 -.0517435 .0517435 .113801 7.19226 40.291838)"/></g><path d="m35.960938 5.738281c-11.347657-.011719-15.046876 18.523438-24.890626 33.710938-2.8125 1.710937-4.457031 3.789062-4.457031 6.035156 0 .105469.007813.210937.011719.316406.148438-2.125 1.769531-4.085937 4.445312-5.714843 9.84375-15.1875 13.542969-33.722657 24.890626-33.710938.421874 0 .851562.027344 1.292968.078125 7.832032-.75 17.515625 9.6875 18.265625 15.199219.019531.007812.046875.015625.046875.015625 0-5.292969-10.160156-16.632813-18.3125-15.851563-.441406-.050781-.871094-.078125-1.292968-.078125zm8.460937 20.105469c-.226563 5.148438 5.152344 11.457031 7.464844 13.921875 3.003906 1.6875 4.835937 3.769531 4.992187 6.035156.007813-.105469.011719-.210937.011719-.316406 0-2.386719-1.859375-4.585937-5.003906-6.355469-2.21875-2.363281-7.253907-8.265625-7.464844-13.285156zm0 0" fill="#fff" fill-opacity=".392157"/><path d="m49.40625 19.664062c-1.628906.003907-3.148438.351563-3.917969 1.425782-.851562 1.191406-1.144531 2.550781-1.058593 3.980468.070312-1.089843.394531-2.125 1.058593-3.054687 2.140625-2.992187 10.078125-.347656 10.078125-.347656 0-.300781-.03125-.617188-.09375-.953125-.554687-.175782-3.453125-1.054688-6.066406-1.050782zm7.460938 25.355469c-.570313 5.648438-11.554688 10.125-25.113282 10.125s-24.546875-4.476562-25.113281-10.125c-.015625.15625-.027344.308594-.027344.464844 0 5.863281 11.214844 10.582031 25.140625 10.582031 13.925782 0 25.136719-4.71875 25.136719-10.582031 0-.15625-.007813-.308594-.023437-.464844zm0 0" fill-opacity=".235294"/><path d="m1087.219068 173.487379c-343.077492-.354297-454.917212 560.02529-752.526602 1019.194064-85.031255 51.727346-134.750919 114.555996-134.750919 182.4629 0 177.266546 339.062127 319.930095 760.084936 319.930095 421.022808 0 759.966837-142.663549 759.966837-319.930095 0-72.158467-56.215108-138.648184-151.284774-192.147015-85.385551-91.054302-309.183089-355.595982-193.446104-517.391564 64.718233-90.463807 304.695329-10.510808 304.695329-10.510808 0-160.024097-307.175407-502.865391-553.647946-479.245598-13.345183-1.535286-26.336069-2.361979-39.090757-2.361979zm0 0" fill="none" stroke="#212121" stroke-linecap="round" stroke-width="11.338583" transform="scale(.0330761)"/></svg>

<?xml version="1.0" encoding="UTF-8"?>
<svg xmlns="http://www.w3.org/2000/svg" xmlns:xlink="http://www.w3.org/1999/xlink" width="64px" height="64px" viewBox="0 0 64 64" version="1.1">
<defs>
<linearGradient id="linear0" gradientUnits="userSpaceOnUse" x1="254" y1="233.5" x2="254" y2="254.666672" gradientTransform="matrix(0.166682,0,0,0.125012,-10.584331,26.87757)">
<stop offset="0" style="stop-color:rgb(0%,0%,0%);stop-opacity:0.27451;"/>
<stop offset="1" style="stop-color:rgb(0%,0%,0%);stop-opacity:0;"/>
</linearGradient>
<radialGradient id="radial0" gradientUnits="userSpaceOnUse" cx="450.908936" cy="189.579361" fx="450.908936" fy="189.579361" r="21.166656" gradientTransform="matrix(0.000000348341,-0.156265,-0.281277,-0.000000203077,89.707825,127.190665)">
<stop offset="0" style="stop-color:rgb(0%,0%,0%);stop-opacity:0.313726;"/>
<stop offset="0.222222" style="stop-color:rgb(0%,0%,0%);stop-opacity:0.27451;"/>
<stop offset="1" style="stop-color:rgb(0%,0%,0%);stop-opacity:0;"/>
</radialGradient>
<radialGradient id="radial1" gradientUnits="userSpaceOnUse" cx="450.908936" cy="189.579361" fx="450.908936" fy="189.579361" r="21.166656" gradientTransform="matrix(-0.000000348341,0.156265,0.281277,0.000000203077,-26.201744,-15.054958)">
<stop offset="0" style="stop-color:rgb(0%,0%,0%);stop-opacity:0.313726;"/>
<stop offset="0.222222" style="stop-color:rgb(0%,0%,0%);stop-opacity:0.27451;"/>
<stop offset="1" style="stop-color:rgb(0%,0%,0%);stop-opacity:0;"/>
</radialGradient>
<radialGradient id="radial2" gradientUnits="userSpaceOnUse" cx="450.908936" cy="189.579361" fx="450.908936" fy="189.579361" r="21.166656" gradientTransform="matrix(-0.000000348341,-0.156265,0.281277,-0.000000203077,-26.201744,127.190665)">
<stop offset="0" style="stop-color:rgb(0%,0%,0%);stop-opacity:0.313726;"/>
<stop offset="0.222222" style="stop-color:rgb(0%,0%,0%);stop-opacity:0.27451;"/>
<stop offset="1" style="stop-color:rgb(0%,0%,0%);stop-opacity:0;"/>
</radialGradient>
<radialGradient id="radial3" gradientUnits="userSpaceOnUse" cx="450.908936" cy="189.579361" fx="450.908936" fy="189.579361" r="21.166656" gradientTransform="matrix(0.000000348341,0.156265,-0.281277,0.000000203077,89.707821,-15.054959)">
<stop offset="0" style="stop-color:rgb(0%,0%,0%);stop-opacity:0.313726;"/>
<stop offset="0.222222" style="stop-color:rgb(0%,0%,0%);stop-opacity:0.27451;"/>
<stop offset="1" style="stop-color:rgb(0%,0%,0%);stop-opacity:0;"/>
</radialGradient>
<linearGradient id="linear1" gradientUnits="userSpaceOnUse" x1="253.999969" y1="275.833344" x2="254" y2="-168.666672" gradientTransform="matrix(0.125012,0,0,0.125012,0,26.877566)">
<stop offset="0" style="stop-color:rgb(36.078432%,41.960785%,75.294119%);stop-opacity:1;"/>
<stop offset="1" style="stop-color:rgb(47.450981%,52.549022%,79.607844%);stop-opacity:1;"/>
</linearGradient>
<linearGradient id="linear2" gradientUnits="userSpaceOnUse" x1="289.274017" y1="238.876144" x2="185.185608" y2="-149.587021" gradientTransform="matrix(1,0,0,1,0.000000000000007105,0)">
<stop offset="0" style="stop-color:rgb(100%,65.490198%,14.901961%);stop-opacity:1;"/>
<stop offset="1" style="stop-color:rgb(100%,71.764708%,30.19608%);stop-opacity:1;"/>
</linearGradient>
<linearGradient id="linear3" gradientUnits="userSpaceOnUse" x1="289.274017" y1="238.876144" x2="185.185608" y2="-149.587021" gradientTransform="matrix(1,0.000000000000000056,-0.000000000000000056,1,-0.000000000000014211,0)">
<stop offset="0" style="stop-color:rgb(100%,65.490198%,14.901961%);stop-opacity:1;"/>
<stop offset="1" style="stop-color:rgb(100%,71.764708%,30.19608%);stop-opacity:1;"/>
</linearGradient>
<linearGradient id="linear4" gradientUnits="userSpaceOnUse" x1="289.274017" y1="238.876144" x2="185.185608" y2="-149.587021" >
<stop offset="0" style="stop-color:rgb(100%,65.490198%,14.901961%);stop-opacity:1;"/>
<stop offset="1" style="stop-color:rgb(100%,71.764708%,30.19608%);stop-opacity:1;"/>
</linearGradient>
</defs>
<g id="surface1">
<path style=" stroke:none;fill-rule:nonzero;fill:url(#linear0);" d="M 26.460938 55.40625 L 37.046875 55.40625 L 37.046875 58.714844 L 26.460938 58.714844 Z M 26.460938 55.40625 "/>
<path style=" stroke:none;fill-rule:nonzero;fill:url(#radial0);" d="M 37.046875 56.066406 L 42.335938 56.066406 L 42.335938 53.421875 L 37.046875 53.421875 Z M 37.046875 56.066406 "/>
<path style=" stroke:none;fill-rule:nonzero;fill:url(#radial1);" d="M 26.460938 56.066406 L 21.167969 56.066406 L 21.167969 58.714844 L 26.460938 58.714844 Z M 26.460938 56.066406 "/>
<path style=" stroke:none;fill-rule:nonzero;fill:url(#radial2);" d="M 26.460938 56.066406 L 21.167969 56.066406 L 21.167969 53.421875 L 26.460938 53.421875 Z M 26.460938 56.066406 "/>
<path style=" stroke:none;fill-rule:nonzero;fill:url(#radial3);" d="M 37.046875 56.066406 L 42.335938 56.066406 L 42.335938 58.714844 L 37.046875 58.714844 Z M 37.046875 56.066406 "/>
<path style=" stroke:none;fill-rule:nonzero;fill:url(#linear1);" d="M 35.960938 5.738281 C 24.613281 5.726562 20.914062 24.261719 11.070312 39.449219 C 8.257812 41.160156 6.613281 43.238281 6.613281 45.484375 C 6.613281 51.347656 17.828125 56.066406 31.753906 56.066406 C 45.679688 56.066406 56.890625 51.347656 56.890625 45.484375 C 56.890625 43.097656 55.03125 40.898438 51.886719 39.128906 C 49.0625 36.117188 41.660156 27.367188 45.488281 22.015625 C 47.628906 19.023438 55.566406 21.667969 55.566406 21.667969 C 55.566406 16.375 45.40625 5.035156 37.253906 5.816406 C 36.8125 5.765625 36.382812 5.738281 35.960938 5.738281 Z M 35.960938 5.738281 "/>
<path style="fill-rule:nonzero;fill:url(#linear2);stroke-width:3;stroke-linecap:round;stroke-linejoin:round;stroke:rgb(12.941177%,12.941177%,12.941177%);stroke-opacity:1;stroke-miterlimit:4;" d="M 201.077339 32.428226 C 207.027161 32.419091 210.170579 52.118615 214.989379 55.615117 C 219.808179 59.111618 239.51579 55.998382 241.354204 61.652146 C 243.200706 67.336092 225.412382 76.404915 223.597577 82.067077 C 221.744502 87.707144 230.783143 105.503555 225.960631 108.995495 C 221.13812 112.487435 207.045764 98.406661 201.095942 98.415796 C 195.14612 98.424931 181.027077 112.495192 176.208277 108.99869 C 171.389477 105.502188 180.405659 87.720396 178.567244 82.066633 C 176.72883 76.412869 158.991228 67.320148 160.806033 61.657986 C 162.659108 56.017919 182.341918 59.090043 187.16443 55.598103 C 191.986941 52.106163 195.11943 32.407179 201.077339 32.428226 Z M 201.077339 32.428226 " transform="matrix(0.120752,0.0323555,-0.0323555,0.120752,1.905406,17.863423)"/>
<path style="fill-rule:nonzero;fill:url(#linear3);stroke-width:3;stroke-linecap:round;stroke-linejoin:round;stroke:rgb(12.941177%,12.941177%,12.941177%);stroke-opacity:1;stroke-miterlimit:4;" d="M 201.068832 32.412047 C 207.018082 32.419159 210.189912 52.110484 214.991916 55.604541 C 219.79392 59.098598 239.508119 56.012137 241.339494 61.651762 C 243.182306 67.334071 225.418039 76.417254 223.594495 82.075486 C 221.74389 87.718095 230.784389 105.493799 225.982224 108.999352 C 221.152998 112.489282 207.018796 98.411621 201.096606 98.420133 C 195.147356 98.413022 181.031197 112.488917 176.186509 109.006297 C 171.384505 105.51224 180.432239 87.716307 178.573804 82.061059 C 176.742429 76.421434 158.977744 67.319579 160.828349 61.67697 C 162.651893 56.018738 182.373483 59.106385 187.175648 55.600832 C 191.977813 52.095279 195.146642 32.420559 201.068832 32.412047 Z M 201.068832 32.412047 " transform="matrix(0.108264,-0.062506,0.062506,0.108264,9.279854,32.051147)"/>
<path style="fill-rule:nonzero;fill:url(#linear4);stroke-width:3;stroke-linecap:round;stroke-linejoin:round;stroke:rgb(12.941177%,12.941177%,12.941177%);stroke-opacity:1;stroke-miterlimit:4;" d="M 201.096004 32.405681 C 207.025749 32.42447 210.186172 52.122562 214.985424 55.609075 C 219.813121 59.108521 239.51379 56.017921 241.34404 61.655659 C 243.189802 67.334776 225.43054 76.422585 223.583467 82.070242 C 221.736393 87.717899 230.782824 105.492672 225.962074 108.998759 C 221.141324 112.504846 207.028452 98.39905 201.085774 98.408706 C 195.143095 98.418362 181.021789 112.489856 176.194092 108.990409 C 171.39484 105.503897 180.414358 87.705355 178.584108 82.067617 C 176.738346 76.3885 158.994116 67.325026 160.812745 61.664435 C 162.659818 56.016778 182.364944 59.10677 187.185694 55.600683 C 191.993511 52.123041 195.12488 32.402404 201.096004 32.405681 Z M 201.096004 32.405681 " transform="matrix(0.113801,-0.0517435,0.0517435,0.113801,7.19226,40.291838)"/>
<path style=" stroke:none;fill-rule:nonzero;fill:rgb(100%,100%,100%);fill-opacity:0.392157;" d="M 35.960938 5.738281 C 24.613281 5.726562 20.914062 24.261719 11.070312 39.449219 C 8.257812 41.160156 6.613281 43.238281 6.613281 45.484375 C 6.613281 45.589844 6.621094 45.695312 6.625 45.800781 C 6.773438 43.675781 8.394531 41.714844 11.070312 40.085938 C 20.914062 24.898438 24.613281 6.363281 35.960938 6.375 C 36.382812 6.375 36.8125 6.402344 37.253906 6.453125 C 45.085938 5.703125 54.769531 16.140625 55.519531 21.652344 C 55.539062 21.660156 55.566406 21.667969 55.566406 21.667969 C 55.566406 16.375 45.40625 5.035156 37.253906 5.816406 C 36.8125 5.765625 36.382812 5.738281 35.960938 5.738281 Z M 44.421875 25.84375 C 44.195312 30.992188 49.574219 37.300781 51.886719 39.765625 C 54.890625 41.453125 56.722656 43.535156 56.878906 45.800781 C 56.886719 45.695312 56.890625 45.589844 56.890625 45.484375 C 56.890625 43.097656 55.03125 40.898438 51.886719 39.128906 C 49.667969 36.765625 44.632812 30.863281 44.421875 25.84375 Z M 44.421875 25.84375 "/>
<path style=" stroke:none;fill-rule:nonzero;fill:rgb(0%,0%,0%);fill-opacity:0.235294;" d="M 49.40625 19.664062 C 47.777344 19.667969 46.257812 20.015625 45.488281 21.089844 C 44.636719 22.28125 44.34375 23.640625 44.429688 25.070312 C 44.5 23.980469 44.824219 22.945312 45.488281 22.015625 C 47.628906 19.023438 55.566406 21.667969 55.566406 21.667969 C 55.566406 21.367188 55.535156 21.050781 55.472656 20.714844 C 54.917969 20.539062 52.019531 19.660156 49.40625 19.664062 Z M 56.867188 45.019531 C 56.296875 50.667969 45.3125 55.144531 31.753906 55.144531 C 18.195312 55.144531 7.207031 50.667969 6.640625 45.019531 C 6.625 45.175781 6.613281 45.328125 6.613281 45.484375 C 6.613281 51.347656 17.828125 56.066406 31.753906 56.066406 C 45.679688 56.066406 56.890625 51.347656 56.890625 45.484375 C 56.890625 45.328125 56.882812 45.175781 56.867188 45.019531 Z M 56.867188 45.019531 "/>
<path style="fill:none;stroke-width:11.338583;stroke-linecap:round;stroke-linejoin:miter;stroke:rgb(12.941177%,12.941177%,12.941177%);stroke-opacity:1;stroke-miterlimit:4;" d="M 1087.219068 173.487379 C 744.141576 173.133082 632.301856 733.512669 334.692466 1192.681443 C 249.661211 1244.408789 199.941547 1307.237439 199.941547 1375.144343 C 199.941547 1552.410889 539.003674 1695.074438 960.026483 1695.074438 C 1381.049291 1695.074438 1719.99332 1552.410889 1719.99332 1375.144343 C 1719.99332 1302.985876 1663.778212 1236.496159 1568.708546 1182.997328 C 1483.322995 1091.943026 1259.525457 827.401346 1375.262442 665.605764 C 1439.980675 575.141957 1679.957771 655.094956 1679.957771 655.094956 C 1679.957771 495.070859 1372.782364 152.229565 1126.309825 175.849358 C 1112.964642 174.314072 1099.973756 173.487379 1087.219068 173.487379 Z M 1087.219068 173.487379 " transform="matrix(0.0330761,0,0,0.0330761,0,0)"/>
</g>
</svg>
